;FLAVOR:Marlin
;TIME:1292
;Filament used: 1.47956m
;Layer height: 0.2
;MINX:134.5
;MINY:134.5
;MINZ:0.3
;MAXX:165.5
;MAXY:165.5
;MAXZ:20.1
;Generated with Cura_SteamEngine 4.12.1
M140 S90
M105
M190 S90
M104 S230
M105
M109 S230
M82 ;absolute extrusion mode
G28 ;Home
G1 Z15.0 F6000 ;Move the platform down 15mm
;Prime the extruder
G92 E0
G1 F200 E3
G92 E0
G1 Y150 F4000
G92 E0
G92 E0
G1 F1500 E-1
;LAYER_COUNT:100
;LAYER:0
M107
G0 F3600 X136.225 Y136.114 Z0.3
;TYPE:SKIRT
G1 F1500 E0
G1 F1800 X136.722 Y135.674 E0.03146
G1 X137.267 Y135.296 E0.0629
G1 X137.855 Y134.988 E0.09436
G1 X138.475 Y134.752 E0.1258
G1 X139.119 Y134.592 E0.15725
G1 X139.778 Y134.511 E0.18872
G1 X140.121 Y134.5 E0.20498
G1 X159.879 Y134.5 E1.14143
G1 X160.541 Y134.54 E1.17286
G1 X161.194 Y134.659 E1.20432
G1 X161.828 Y134.856 E1.23579
G1 X162.433 Y135.128 E1.26722
G1 X163.002 Y135.47 E1.29869
G1 X163.525 Y135.879 E1.33016
G1 X163.886 Y136.225 E1.35386
G1 X164.326 Y136.722 E1.38532
G1 X164.704 Y137.267 E1.41675
G1 X165.012 Y137.855 E1.44821
G1 X165.248 Y138.475 E1.47966
G1 X165.408 Y139.119 E1.51111
G1 X165.489 Y139.778 E1.54257
G1 X165.5 Y140.121 E1.55884
G1 X165.5 Y159.879 E2.49528
G1 X165.46 Y160.541 E2.52672
G1 X165.341 Y161.194 E2.55818
G1 X165.144 Y161.828 E2.58964
G1 X164.872 Y162.433 E2.62108
G1 X164.53 Y163.002 E2.65255
G1 X164.121 Y163.525 E2.68401
G1 X163.775 Y163.886 E2.70771
G1 X163.278 Y164.326 E2.73917
G1 X162.733 Y164.704 E2.77061
G1 X162.145 Y165.012 E2.80207
G1 X161.525 Y165.248 E2.83351
G1 X160.881 Y165.408 E2.86496
G1 X160.222 Y165.489 E2.89643
G1 X159.879 Y165.5 E2.9127
G1 X140.121 Y165.5 E3.84914
G1 X139.459 Y165.46 E3.88057
G1 X138.806 Y165.341 E3.91203
G1 X138.172 Y165.144 E3.9435
G1 X137.567 Y164.872 E3.97494
G1 X136.998 Y164.53 E4.0064
G1 X136.475 Y164.121 E4.03787
G1 X136.114 Y163.775 E4.06157
G1 X135.674 Y163.278 E4.09303
G1 X135.296 Y162.733 E4.12447
G1 X134.988 Y162.145 E4.15593
G1 X134.752 Y161.525 E4.18737
G1 X134.592 Y160.881 E4.21882
G1 X134.511 Y160.222 E4.25029
G1 X134.5 Y159.879 E4.26655
G1 X134.5 Y140.121 E5.203
G1 X134.54 Y139.459 E5.23443
G1 X134.659 Y138.806 E5.26589
G1 X134.856 Y138.172 E5.29736
G1 X135.128 Y137.567 E5.32879
G1 X135.47 Y136.998 E5.36026
G1 X135.879 Y136.475 E5.39173
G1 X136.225 Y136.114 E5.41543
G0 F3600 X136.494 Y136.383
G1 F1800 X136.974 Y135.959 E5.44578
G1 X137.503 Y135.598 E5.47614
G1 X138.073 Y135.307 E5.50647
G1 X138.675 Y135.088 E5.53683
G1 X139.299 Y134.946 E5.56716
G1 X140.121 Y134.88 E5.60625
G1 X159.879 Y134.88 E6.54269
G1 X160.518 Y134.92 E6.57303
G1 X161.147 Y135.039 E6.60337
G1 X161.757 Y135.236 E6.63376
G1 X162.337 Y135.507 E6.6641
G1 X162.878 Y135.848 E6.69441
G1 X163.506 Y136.383 E6.73351
G1 X163.617 Y136.494 E6.74095
G1 X164.041 Y136.974 E6.7713
G1 X164.402 Y137.503 E6.80166
G1 X164.693 Y138.073 E6.83199
G1 X164.912 Y138.675 E6.86235
G1 X165.054 Y139.299 E6.89268
G1 X165.12 Y140.121 E6.93177
G1 X165.12 Y159.879 E7.86821
G1 X165.08 Y160.518 E7.89856
G1 X164.961 Y161.147 E7.9289
G1 X164.764 Y161.757 E7.95928
G1 X164.493 Y162.337 E7.98962
G1 X164.152 Y162.878 E8.01993
G1 X163.617 Y163.506 E8.05903
G1 X163.506 Y163.617 E8.06647
G1 X163.026 Y164.041 E8.09683
G1 X162.497 Y164.402 E8.12718
G1 X161.927 Y164.693 E8.15751
G1 X161.325 Y164.912 E8.18787
G1 X160.701 Y165.054 E8.21821
G1 X159.879 Y165.12 E8.25729
G1 X140.121 Y165.12 E9.19373
G1 X139.482 Y165.08 E9.22408
G1 X138.853 Y164.961 E9.25442
G1 X138.243 Y164.764 E9.2848
G1 X137.663 Y164.493 E9.31514
G1 X137.122 Y164.152 E9.34545
G1 X136.494 Y163.617 E9.38456
G1 X136.383 Y163.506 E9.392
G1 X135.959 Y163.026 E9.42235
G1 X135.598 Y162.497 E9.4527
G1 X135.307 Y161.927 E9.48304
G1 X135.088 Y161.325 E9.5134
G1 X134.946 Y160.701 E9.54373
G1 X134.88 Y159.879 E9.58281
G1 X134.88 Y140.121 E10.51926
G1 X134.92 Y139.482 E10.5496
G1 X135.039 Y138.853 E10.57994
G1 X135.236 Y138.243 E10.61033
G1 X135.507 Y137.663 E10.64067
G1 X135.848 Y137.122 E10.67098
G1 X136.383 Y136.494 E10.71008
G1 X136.494 Y136.383 E10.71752
G0 F3600 X136.762 Y136.651
G1 F1800 X137.225 Y136.245 E10.7467
G1 X137.737 Y135.902 E10.77591
G1 X138.289 Y135.628 E10.80512
G1 X138.871 Y135.427 E10.8343
G1 X139.475 Y135.304 E10.86352
G1 X140.121 Y135.26 E10.89421
G1 X159.879 Y135.26 E11.83065
G1 X160.494 Y135.3 E11.85986
G1 X161.098 Y135.419 E11.88904
G1 X161.682 Y135.616 E11.91825
G1 X162.236 Y135.886 E11.94746
G1 X162.75 Y136.226 E11.97667
G1 X163.238 Y136.651 E12.00734
G1 X163.349 Y136.762 E12.01478
G1 X163.755 Y137.225 E12.04397
G1 X164.098 Y137.737 E12.07317
G1 X164.372 Y138.289 E12.10238
G1 X164.573 Y138.871 E12.13157
G1 X164.696 Y139.475 E12.16078
G1 X164.74 Y140.121 E12.19147
G1 X164.74 Y159.879 E13.12791
G1 X164.7 Y160.494 E13.15712
G1 X164.581 Y161.098 E13.1863
G1 X164.384 Y161.682 E13.21551
G1 X164.114 Y162.236 E13.24472
G1 X163.774 Y162.75 E13.27393
G1 X163.349 Y163.238 E13.3046
G1 X163.238 Y163.349 E13.31204
G1 X162.775 Y163.755 E13.34123
G1 X162.263 Y164.098 E13.37044
G1 X161.711 Y164.372 E13.39964
G1 X161.129 Y164.573 E13.42883
G1 X160.525 Y164.696 E13.45804
G1 X159.879 Y164.74 E13.48873
G1 X140.121 Y164.74 E14.42517
G1 X139.506 Y164.7 E14.45438
G1 X138.902 Y164.581 E14.48356
G1 X138.318 Y164.384 E14.51277
G1 X137.764 Y164.114 E14.54198
G1 X137.25 Y163.774 E14.57119
G1 X136.762 Y163.349 E14.60186
G1 X136.651 Y163.238 E14.6093
G1 X136.245 Y162.775 E14.63849
G1 X135.902 Y162.263 E14.6677
G1 X135.628 Y161.711 E14.6969
G1 X135.427 Y161.129 E14.72609
G1 X135.304 Y160.525 E14.7553
G1 X135.26 Y159.879 E14.78599
G1 X135.26 Y140.121 E15.72244
G1 X135.3 Y139.506 E15.75164
G1 X135.419 Y138.902 E15.78082
G1 X135.616 Y138.318 E15.81003
G1 X135.886 Y137.764 E15.83924
G1 X136.226 Y137.25 E15.86845
G1 X136.651 Y136.762 E15.89912
G1 X136.762 Y136.651 E15.90656
G0 F3600 X137.031 Y136.92
G1 F1800 X137.476 Y136.531 E15.93458
G1 X137.97 Y136.206 E15.9626
G1 X138.502 Y135.951 E15.99056
G1 X139.065 Y135.77 E16.01859
G1 X139.647 Y135.666 E16.04661
G1 X140.121 Y135.64 E16.06911
G1 X159.879 Y135.64 E17.00556
G1 X160.469 Y135.68 E17.03359
G1 X161.047 Y135.799 E17.06155
G1 X161.605 Y135.995 E17.08959
G1 X162.131 Y136.265 E17.11761
G1 X162.615 Y136.603 E17.14559
G1 X163.08 Y137.031 E17.17554
G1 X163.469 Y137.476 E17.20355
G1 X163.794 Y137.97 E17.23158
G1 X164.049 Y138.502 E17.25954
G1 X164.23 Y139.065 E17.28757
G1 X164.334 Y139.647 E17.31559
G1 X164.36 Y140.121 E17.33809
G1 X164.36 Y159.879 E18.27454
G1 X164.32 Y160.469 E18.30256
G1 X164.201 Y161.047 E18.33053
G1 X164.005 Y161.605 E18.35856
G1 X163.735 Y162.131 E18.38659
G1 X163.397 Y162.615 E18.41457
G1 X162.969 Y163.08 E18.44452
G1 X162.524 Y163.469 E18.47253
G1 X162.03 Y163.794 E18.50056
G1 X161.498 Y164.049 E18.52852
G1 X160.935 Y164.23 E18.55655
G1 X160.353 Y164.334 E18.58457
G1 X159.879 Y164.36 E18.60707
G1 X140.121 Y164.36 E19.54351
G1 X139.531 Y164.32 E19.57154
G1 X138.953 Y164.201 E19.59951
G1 X138.395 Y164.005 E19.62754
G1 X137.869 Y163.735 E19.65556
G1 X137.385 Y163.397 E19.68354
G1 X136.92 Y162.969 E19.7135
G1 X136.531 Y162.524 E19.74151
G1 X136.206 Y162.03 E19.76954
G1 X135.951 Y161.498 E19.7975
G1 X135.77 Y160.935 E19.82553
G1 X135.666 Y160.353 E19.85355
G1 X135.64 Y159.879 E19.87605
G1 X135.64 Y140.121 E20.81249
G1 X135.68 Y139.531 E20.84052
G1 X135.799 Y138.953 E20.86849
G1 X135.995 Y138.395 E20.89652
G1 X136.265 Y137.869 E20.92454
G1 X136.603 Y137.385 E20.95252
G1 X137.031 Y136.92 E20.98247
G0 F3600 X137.3 Y137.189
G1 F1800 X137.726 Y136.819 E21.00922
G1 X138.201 Y136.513 E21.036
G1 X138.714 Y136.276 E21.06278
G1 X139.255 Y136.115 E21.08953
G1 X139.813 Y136.032 E21.11627
G1 X140.121 Y136.02 E21.13088
G1 X159.879 Y136.02 E22.06732
G1 X160.442 Y136.06 E22.09408
G1 X160.994 Y136.179 E22.12084
G1 X161.524 Y136.375 E22.14762
G1 X162.02 Y136.643 E22.17434
G1 X162.474 Y136.979 E22.20111
G1 X162.811 Y137.3 E22.22317
G1 X163.181 Y137.726 E22.24991
G1 X163.487 Y138.201 E22.27669
G1 X163.724 Y138.714 E22.30348
G1 X163.885 Y139.255 E22.33023
G1 X163.968 Y139.813 E22.35697
G1 X163.98 Y140.121 E22.37158
G1 X163.98 Y159.879 E23.30802
G1 X163.94 Y160.442 E23.33477
G1 X163.821 Y160.994 E23.36153
G1 X163.625 Y161.524 E23.38832
G1 X163.357 Y162.02 E23.41504
G1 X163.021 Y162.474 E23.44181
G1 X162.7 Y162.811 E23.46387
G1 X162.274 Y163.181 E23.49061
G1 X161.799 Y163.487 E23.51739
G1 X161.286 Y163.724 E23.54417
G1 X160.745 Y163.885 E23.57092
G1 X160.187 Y163.968 E23.59766
G1 X159.879 Y163.98 E23.61227
G1 X140.121 Y163.98 E24.54871
G1 X139.558 Y163.94 E24.57547
G1 X139.006 Y163.821 E24.60223
G1 X138.476 Y163.625 E24.62901
G1 X137.98 Y163.357 E24.65573
G1 X137.526 Y163.021 E24.6825
G1 X137.189 Y162.7 E24.70456
G1 X136.819 Y162.274 E24.7313
G1 X136.513 Y161.799 E24.75808
G1 X136.276 Y161.286 E24.78487
G1 X136.115 Y160.745 E24.81162
G1 X136.032 Y160.187 E24.83836
G1 X136.02 Y159.879 E24.85297
G1 X136.02 Y140.121 E25.78941
G1 X136.06 Y139.558 E25.81616
G1 X136.179 Y139.006 E25.84292
G1 X136.375 Y138.476 E25.86971
G1 X136.643 Y137.98 E25.89643
G1 X136.979 Y137.526 E25.9232
G1 X137.3 Y137.189 E25.94526
G0 F3600 X137.568 Y137.457
G1 F1800 X137.975 Y137.107 E25.9707
G1 X138.43 Y136.821 E25.99617
G1 X138.922 Y136.605 E26.02164
G1 X139.44 Y136.465 E26.04707
G1 X140.121 Y136.4 E26.07949
G1 X159.879 Y136.4 E27.01593
G1 X160.415 Y136.44 E27.04141
G1 X160.938 Y136.559 E27.06683
G1 X161.438 Y136.754 E27.09227
G1 X161.904 Y137.022 E27.11775
G1 X162.432 Y137.457 E27.15017
G1 X162.543 Y137.568 E27.15761
G1 X162.893 Y137.975 E27.18305
G1 X163.179 Y138.43 E27.20852
G1 X163.395 Y138.922 E27.23399
G1 X163.535 Y139.44 E27.25942
G1 X163.6 Y140.121 E27.29184
G1 X163.6 Y159.879 E28.22829
G1 X163.56 Y160.415 E28.25376
G1 X163.441 Y160.938 E28.27919
G1 X163.246 Y161.438 E28.30462
G1 X162.978 Y161.904 E28.3301
G1 X162.543 Y162.432 E28.36252
G1 X162.432 Y162.543 E28.36996
G1 X162.025 Y162.893 E28.39541
G1 X161.57 Y163.179 E28.42088
G1 X161.078 Y163.395 E28.44634
G1 X160.56 Y163.535 E28.47178
G1 X159.879 Y163.6 E28.5042
G1 X140.121 Y163.6 E29.44064
G1 X139.585 Y163.56 E29.46612
G1 X139.062 Y163.441 E29.49154
G1 X138.562 Y163.246 E29.51698
G1 X138.096 Y162.978 E29.54245
G1 X137.568 Y162.543 E29.57488
G1 X137.457 Y162.432 E29.58232
G1 X137.107 Y162.025 E29.60776
G1 X136.821 Y161.57 E29.63323
G1 X136.605 Y161.078 E29.6587
G1 X136.465 Y160.56 E29.68413
G1 X136.4 Y159.879 E29.71655
G1 X136.4 Y140.121 E30.653
G1 X136.44 Y139.585 E30.67847
G1 X136.559 Y139.062 E30.70389
G1 X136.754 Y138.562 E30.72933
G1 X137.022 Y138.096 E30.75481
G1 X137.457 Y137.568 E30.78723
G1 X137.568 Y137.457 E30.79467
G0 F3600 X137.837 Y137.726
G1 F1800 X138.223 Y137.396 E30.81874
G1 X138.657 Y137.131 E30.84284
G1 X139.126 Y136.937 E30.8669
G1 X139.62 Y136.819 E30.89097
G1 X140.121 Y136.78 E30.91479
G1 X159.879 Y136.78 E31.85123
G1 X160.385 Y136.82 E31.87529
G1 X160.879 Y136.939 E31.89937
G1 X161.348 Y137.134 E31.92344
G1 X161.781 Y137.399 E31.94751
G1 X162.163 Y137.726 E31.97134
G1 X162.274 Y137.837 E31.97878
G1 X162.604 Y138.223 E32.00285
G1 X162.869 Y138.657 E32.02695
G1 X163.063 Y139.126 E32.051
G1 X163.181 Y139.62 E32.07508
G1 X163.22 Y140.121 E32.09889
G1 X163.22 Y159.879 E33.03534
G1 X163.18 Y160.385 E33.05939
G1 X163.061 Y160.879 E33.08348
G1 X162.866 Y161.348 E33.10755
G1 X162.601 Y161.781 E33.13161
G1 X162.274 Y162.163 E33.15544
G1 X162.163 Y162.274 E33.16288
G1 X161.777 Y162.604 E33.18695
G1 X161.343 Y162.869 E33.21105
G1 X160.874 Y163.063 E33.23511
G1 X160.38 Y163.181 E33.25918
G1 X159.879 Y163.22 E33.283
G1 X140.121 Y163.22 E34.21944
G1 X139.615 Y163.18 E34.2435
G1 X139.121 Y163.061 E34.26758
G1 X138.652 Y162.866 E34.29166
G1 X138.219 Y162.601 E34.31572
G1 X137.837 Y162.274 E34.33955
G1 X137.726 Y162.163 E34.34699
G1 X137.396 Y161.777 E34.37106
G1 X137.131 Y161.343 E34.39516
G1 X136.937 Y160.874 E34.41922
G1 X136.819 Y160.38 E34.44329
G1 X136.78 Y159.879 E34.4671
G1 X136.78 Y140.121 E35.40355
G1 X136.82 Y139.615 E35.42761
G1 X136.939 Y139.121 E35.45169
G1 X137.134 Y138.652 E35.47576
G1 X137.399 Y138.219 E35.49982
G1 X137.726 Y137.837 E35.52366
G1 X137.837 Y137.726 E35.5311
G0 F3600 X138.106 Y137.995
G1 F1800 X138.47 Y137.687 E35.5537
G1 X138.881 Y137.444 E35.57632
G1 X139.326 Y137.273 E35.59892
G1 X139.794 Y137.179 E35.62154
G1 X140.121 Y137.16 E35.63707
G1 X159.879 Y137.16 E36.57351
G1 X160.354 Y137.2 E36.59611
G1 X160.816 Y137.319 E36.61872
G1 X161.252 Y137.513 E36.64133
G1 X161.65 Y137.777 E36.66397
G1 X162.005 Y138.106 E36.68691
G1 X162.313 Y138.47 E36.70951
G1 X162.556 Y138.881 E36.73214
G1 X162.727 Y139.326 E36.75473
G1 X162.821 Y139.794 E36.77736
G1 X162.84 Y140.121 E36.79288
G1 X162.84 Y159.879 E37.72933
G1 X162.8 Y160.354 E37.75192
G1 X162.681 Y160.816 E37.77453
G1 X162.487 Y161.252 E37.79715
G1 X162.223 Y161.65 E37.81979
G1 X161.894 Y162.005 E37.84273
G1 X161.53 Y162.313 E37.86532
G1 X161.119 Y162.556 E37.88795
G1 X160.674 Y162.727 E37.91055
G1 X160.206 Y162.821 E37.93317
G1 X159.879 Y162.84 E37.9487
G1 X140.121 Y162.84 E38.88514
G1 X139.646 Y162.8 E38.90773
G1 X139.184 Y162.681 E38.93035
G1 X138.748 Y162.487 E38.95296
G1 X138.35 Y162.223 E38.9756
G1 X137.995 Y161.894 E38.99854
G1 X137.687 Y161.53 E39.02114
G1 X137.444 Y161.119 E39.04377
G1 X137.273 Y160.674 E39.06636
G1 X137.179 Y160.206 E39.08899
G1 X137.16 Y159.879 E39.10451
G1 X137.16 Y140.121 E40.04096
G1 X137.2 Y139.646 E40.06355
G1 X137.319 Y139.184 E40.08616
G1 X137.513 Y138.748 E40.10878
G1 X137.777 Y138.35 E40.13141
G1 X138.106 Y137.995 E40.15435
G0 F3600 X138.263 Y138.374
G1 F1800 X138.715 Y137.979 E40.1828
G1 X139.102 Y137.76 E40.20388
G1 X139.521 Y137.614 E40.22491
G1 X140.121 Y137.54 E40.25356
G1 X159.879 Y137.54 E41.19001
G1 X160.321 Y137.58 E41.21104
G1 X160.749 Y137.698 E41.23208
G1 X161.149 Y137.892 E41.25315
G1 X161.626 Y138.263 E41.28179
G1 X162.021 Y138.715 E41.31025
G1 X162.24 Y139.102 E41.33132
G1 X162.386 Y139.521 E41.35235
G1 X162.46 Y140.121 E41.381
G1 X162.46 Y159.879 E42.31745
G1 X162.42 Y160.321 E42.33848
G1 X162.302 Y160.749 E42.35952
G1 X162.108 Y161.149 E42.38059
G1 X161.737 Y161.626 E42.40924
G1 X161.285 Y162.021 E42.43769
G1 X160.898 Y162.24 E42.45876
G1 X160.479 Y162.386 E42.47979
G1 X159.879 Y162.46 E42.50844
G1 X140.121 Y162.46 E43.44489
G1 X139.679 Y162.42 E43.46592
G1 X139.251 Y162.302 E43.48696
G1 X138.851 Y162.108 E43.50803
G1 X138.374 Y161.737 E43.53668
G1 X137.979 Y161.285 E43.56513
G1 X137.76 Y160.898 E43.5862
G1 X137.614 Y160.479 E43.60723
G1 X137.54 Y159.879 E43.63588
G1 X137.54 Y140.121 E44.57233
G1 X137.58 Y139.679 E44.59336
G1 X137.698 Y139.251 E44.61441
G1 X137.892 Y138.851 E44.63548
G1 X138.263 Y138.374 E44.66412
G0 F3600 X138.643 Y138.532
G1 F1800 X138.959 Y138.273 E44.68348
G1 X139.319 Y138.08 E44.70284
G1 X139.709 Y137.961 E44.72217
G1 X140.121 Y137.92 E44.74179
G1 X159.879 Y137.92 E45.67823
G1 X160.285 Y137.96 E45.69757
G1 X160.676 Y138.078 E45.71693
G1 X161.037 Y138.27 E45.73631
G1 X161.468 Y138.643 E45.76332
G1 X161.727 Y138.959 E45.78269
G1 X161.92 Y139.319 E45.80205
G1 X162.039 Y139.709 E45.82137
G1 X162.08 Y140.121 E45.841
G1 X162.08 Y159.879 E46.77744
G1 X162.04 Y160.285 E46.79678
G1 X161.922 Y160.676 E46.81613
G1 X161.73 Y161.037 E46.83551
G1 X161.357 Y161.468 E46.86253
G1 X161.041 Y161.727 E46.88189
G1 X160.681 Y161.92 E46.90125
G1 X160.291 Y162.039 E46.92058
G1 X159.879 Y162.08 E46.9402
G1 X140.121 Y162.08 E47.87664
G1 X139.715 Y162.04 E47.89598
G1 X139.324 Y161.922 E47.91534
G1 X138.963 Y161.73 E47.93472
G1 X138.532 Y161.357 E47.96173
G1 X138.273 Y161.041 E47.9811
G1 X138.08 Y160.681 E48.00046
G1 X137.961 Y160.291 E48.01978
G1 X137.92 Y159.879 E48.03941
G1 X137.92 Y140.121 E48.97585
G1 X137.96 Y139.715 E48.99519
